src/pages/Welcome/images/bg.svg

<svg width="100%" height="100%" viewBox="0 0 555 907" fill="none" xmlns="http://www.w3.org/2000/svg">
<rect width="213" height="833" rx="106.5" transform="matrix(1 -8.74228e-08 -8.74228e-08 -1 73 833)" fill="#F8CA06"/>
<ellipse rx="119" ry="118.5" transform="matrix(1 -8.74228e-08 -8.74228e-08 -1 436 773.5)" fill="#F8CA06"/>
<ellipse opacity="0.1" cx="38.5" cy="904" rx="18.5" ry="2" fill="#181C19"/>
<path d="M67.1838 823.41C49.3539 828.479 39.2067 845.805 36.3105 853.992C36.2917 854.045 36.2832 854.098 36.2832 854.155V854.896C36.2832 855.155 36.4918 855.372 36.7499 855.393C64.6409 857.637 69.0914 835.671 67.8043 823.818C67.7716 823.517 67.4751 823.327 67.1838 823.41Z" fill="#F8CA06"/>
<path d="M36.6041 862.105V859.365C36.6041 859.261 36.5723 859.16 36.5121 859.076C32.9571 854.078 28.5107 847.944 20.5553 844.762C12.9671 841.726 5.66599 838.691 0.823667 834.842C0.493717 834.579 -0.00146515 834.8 0.000264759 835.221C0.0261265 841.523 1.95249 850.337 9.64287 856.317C15.2905 860.708 21.3481 859.247 35.983 862.592C36.2971 862.664 36.6041 862.428 36.6041 862.105Z" fill="#F8CA06"/>
<path d="M40.0418 811.974C58.8432 810.123 61.5068 789.628 60.443 778.789C60.407 778.421 59.9941 778.233 59.6841 778.434C51.1442 783.956 46.8196 787.397 44.6296 790.839C41.101 796.384 41.7376 800.766 39.5116 809.069C39.5002 809.112 39.4941 809.156 39.4941 809.2V811.482C39.4941 811.774 39.7517 812.003 40.0418 811.974Z" fill="#F8CA06"/>
<path d="M38.1866 822.105C20.9778 825.322 14.3042 810.072 12.9609 801.25C12.9056 800.887 13.2572 800.602 13.6048 800.721C17.7849 802.144 18.9097 802.784 23.7665 803.998C28.902 805.282 32.0199 808.813 33.7165 811.702C35.3322 814.453 36.4904 817.495 38.5376 821.382C38.6931 821.678 38.5147 822.044 38.1866 822.105Z" fill="#F8CA06"/>
<path d="M38.5303 799.826C39.0653 802.929 39.8142 809.829 39.8142 812.665C39.8142 819.405 36.2835 837.058 36.2835 841.552C36.2835 846.045 36.228 861.773 37.5674 872.044C38.9068 882.315 37.8884 895.689 37.5674 903.82" stroke="#181C19" stroke-width="1.4" stroke-linecap="round" stroke-linejoin="round"/>
<path d="M58.7497 858.884L59.4496 858.899C59.4547 858.657 59.3342 858.429 59.1311 858.297C58.9279 858.165 58.6709 858.148 58.4517 858.251L58.7497 858.884ZM47.1948 864.054L47.6076 864.619L47.1948 864.054ZM58.0499 858.869C57.9496 863.58 53.8452 874.463 37.707 878.75L38.0664 880.103C54.7954 875.659 59.3358 864.246 59.4496 858.899L58.0499 858.869ZM38.5441 875.815C39.5173 873.155 42.3983 868.423 47.6076 864.619L46.782 863.489C41.3459 867.458 38.2964 872.418 37.2293 875.334L38.5441 875.815ZM47.6076 864.619C49.0543 863.563 50.5061 862.939 52.3187 862.251C54.1272 861.564 56.2882 860.816 59.0478 859.518L58.4517 858.251C55.7548 859.52 53.6638 860.243 51.8218 860.942C49.9839 861.64 48.3865 862.317 46.782 863.489L47.6076 864.619Z" fill="#181C19"/>
<path d="M38.0626 889.018C36.1368 882.812 28.1317 868.898 10.9277 862.736C12.5326 867.229 12.0655 870.752 14.1374 875.254C15.9754 879.247 18.419 882.928 22.8033 886.045C26.6831 888.803 30.0384 888.451 38.0626 891.661" stroke="#181C19" stroke-width="1.4" stroke-linecap="round" stroke-linejoin="round"/>
<path d="M36.2829 839.626C33.6082 835.561 25.4984 827.301 14.457 826.787C16.7038 831.923 17 833.5 18.3087 835.454C19.6173 837.407 24.9365 841.768 36.2829 840.589" stroke="#181C19" stroke-width="1.4" stroke-linecap="round" stroke-linejoin="round"/>
<path d="M37.888 829.676C38.53 824.862 42.7668 814.462 54.5784 811.381C53.5085 818.335 48.5442 832.565 37.2461 833.849" stroke="#181C19" stroke-width="1.4" stroke-linecap="round" stroke-linejoin="round"/>
<ellipse opacity="0.1" rx="20.7877" ry="2.24732" transform="matrix(-1 0 0 1 361.234 903.757)" fill="#181C19"/>
<path d="M357.59 902.633C323.591 885.778 303.914 855.433 345.503 876.227C356.739 881.845 339.9 871.171 326.689 853.192C313.478 835.213 333.416 840.344 341.57 848.697C369.589 877.404 345.228 867.8 337.925 831.281C332.082 802.066 346.727 819.857 354.78 832.404C357.963 837.835 364.5 847.5 360.5 847.5C356.5 847.5 354.78 798 365.167 794.762C372.16 792.582 382.929 839.241 371.073 846.45C364.605 850.383 386.516 818.92 391.573 822.291C394.944 824.539 393.491 845.656 376.403 862.743C369.099 870.047 387.978 836.899 398.602 844.203C401.599 846.263 401.748 856.451 378.376 880.722C393.546 869.11 421.812 864.429 369 902.633" stroke="#181C19" stroke-width="1.4" stroke-linecap="round" stroke-linejoin="round"/>
<ellipse opacity="0.1" cx="266.5" cy="903.349" rx="25.5" ry="3" fill="#181C19"/>
<ellipse opacity="0.1" cx="131.5" cy="903.349" rx="25.5" ry="3" fill="#181C19"/>
<path d="M210.002 855.048C211.853 847.857 212.352 836.963 204.52 825.856C204.52 825.856 213.704 824.503 222.604 823.222C235.634 835.254 210.002 855.048 210.002 855.048Z" fill="white" stroke="#181C19" stroke-width="1.4" stroke-miterlimit="10" stroke-linecap="round" stroke-linejoin="round"/>
<path d="M246.599 842.232H162.939" stroke="#181C19" stroke-width="5" stroke-miterlimit="10" stroke-linecap="round" stroke-linejoin="round"/>
<path d="M249.091 847.857C249.091 847.857 242.754 836.607 243.253 820.231" stroke="#181C19" stroke-width="5" stroke-miterlimit="10" stroke-linecap="round" stroke-linejoin="round"/>
<path d="M246.599 842.232L196.047 883.67" stroke="#181C19" stroke-width="5" stroke-miterlimit="10" stroke-linecap="round" stroke-linejoin="round"/>
<path d="M162.939 842.232L154.395 849.21" stroke="#181C19" stroke-width="5" stroke-miterlimit="10" stroke-linecap="round" stroke-linejoin="round"/>
<path d="M188.5 880.395L157.172 833.617" stroke="#181C19" stroke-width="5" stroke-miterlimit="10" stroke-linecap="round" stroke-linejoin="round"/>
<path d="M133.961 900.972C150.476 900.972 163.865 887.584 163.865 871.068C163.865 854.553 150.476 841.164 133.961 841.164C117.445 841.164 104.057 854.553 104.057 871.068C104.057 887.584 117.445 900.972 133.961 900.972Z" fill="white" stroke="#181C19" stroke-width="5" stroke-miterlimit="10" stroke-linecap="round" stroke-linejoin="round"/>
<rect x="129.611" y="880.629" width="4.94461" height="19.4694" rx="2.47231" transform="rotate(-120 129.611 880.629)" fill="#181C19"/>
<circle cx="127.076" cy="870.674" r="2.78134" transform="rotate(-120 127.076 870.674)" fill="#181C19"/>
<path d="M267.888 900.972C284.404 900.972 297.792 887.584 297.792 871.068C297.792 854.553 284.404 841.164 267.888 841.164C251.373 841.164 237.984 854.553 237.984 871.068C237.984 887.584 251.373 900.972 267.888 900.972Z" fill="white" stroke="#181C19" stroke-width="5" stroke-miterlimit="10" stroke-linecap="round" stroke-linejoin="round"/>
<rect x="268.261" y="860.8" width="4.89222" height="19.2631" rx="2.44611" transform="rotate(30 268.261 860.8)" fill="#181C19"/>
<circle cx="275.359" cy="868.076" r="2.75187" transform="rotate(30 275.359 868.076)" fill="#181C19"/>
<path d="M210.002 855.048C208.649 860.317 206.655 863.592 206.655 863.592C206.655 863.592 200.959 874.272 197.399 879.968C193.839 885.664 195.975 888.512 195.975 888.512C195.975 888.512 196.687 889.936 199.535 893.496C201.315 895.703 200.603 896.558 199.82 896.842C199.322 896.985 198.823 897.056 198.396 896.914C196.616 896.558 190.635 895.347 188.215 894.137C185.367 892.713 186.079 882.033 186.079 882.033V865.23C186.079 861.242 185.438 857.326 184.014 853.624C179.955 843.158 172.764 840.523 170.415 839.313C164.719 836.465 150.479 836.465 143.359 830.769C136.239 825.073 130.543 817.241 131.255 798.729C137.805 802.645 151.547 814.393 173.263 803.001C173.263 803.001 179.671 825.785 204.591 825.785C212.351 836.963 211.853 847.857 210.002 855.048Z" fill="white" stroke="#181C19" stroke-width="1.4" stroke-miterlimit="10" stroke-linecap="round" stroke-linejoin="round"/>
<path d="M256.78 818.167C255.641 818.523 254.502 818.736 253.291 818.807C247.311 819.448 248.094 819.519 238.695 820.872C236.915 821.157 229.867 822.154 222.604 823.222C213.704 824.503 204.519 825.856 204.519 825.856C179.599 825.856 173.191 803.072 173.191 803.072C194.551 789.615 209.005 792.321 212.494 793.745C218.688 805.92 230.151 808.412 235.847 808.768C241.401 809.124 249.091 809.694 252.864 810.05C254.858 810.192 256.851 810.762 258.631 811.83C263.615 814.678 259.699 817.312 256.78 818.167Z" fill="#F8CA06" stroke="#181C19" stroke-width="1.4" stroke-miterlimit="10" stroke-linecap="round" stroke-linejoin="round"/>
<path d="M208.792 781C209.432 786.126 210.785 790.327 212.494 793.745C209.005 792.321 194.552 789.686 173.192 803.072C151.476 814.464 137.734 802.716 131.184 798.8C131.896 780.288 151.832 758.928 181.024 760.352C193.128 760.922 200.105 760.779 204.235 760.352C207.652 767.614 212.28 768.611 212.992 768.896C206.94 774.236 208.792 781 208.792 781Z" fill="#181C19" stroke="#181C19" stroke-width="1.4" stroke-miterlimit="10" stroke-linecap="round" stroke-linejoin="round"/>
<path d="M227.304 753.944C226.592 756.08 226.592 758.928 226.592 758.928C225.88 763.912 220.896 764.624 220.896 764.624C217.336 765.763 214.844 767.258 212.993 768.896C212.281 768.54 207.653 767.543 204.235 760.352C210.003 759.782 209.86 758.714 209.86 758.714C209.077 758.501 208.863 757.789 210.216 756.151C211.142 755.012 212.423 754.086 213.776 753.374C218.475 750.882 222.249 750.526 222.249 750.526C223.744 753.232 227.304 753.944 227.304 753.944Z" stroke="#181C19" stroke-width="1.4" stroke-miterlimit="10" stroke-linecap="round" stroke-linejoin="round"/>
<path d="M209.788 758.643C210.998 758.999 213.775 758.216 213.775 758.216" stroke="#181C19" stroke-width="1.4" stroke-miterlimit="10" stroke-linecap="round" stroke-linejoin="round"/>
<path d="M213.776 753.303C212.423 754.086 211.142 755.012 210.216 756.08C208.863 757.718 209.077 758.43 209.86 758.643C209.86 758.643 210.002 759.711 204.235 760.281C200.818 753.018 203.025 733.011 219.329 741.342C215.841 746.539 213.562 753.303 213.776 753.303Z" fill="white" stroke="#181C19" stroke-width="1.4" stroke-miterlimit="10" stroke-linecap="round" stroke-linejoin="round"/>
<path d="M222.32 750.384C222.32 750.384 218.475 750.811 213.847 753.232C213.562 753.232 215.841 746.468 219.401 741.342C221.679 737.924 224.527 735.218 227.446 735.503C233 736.144 227.802 746.966 222.32 750.384Z" fill="#181C19" stroke="#181C19" stroke-width="1.4" stroke-miterlimit="10" stroke-linecap="round" stroke-linejoin="round"/>
<path d="M216 698C214.999 686.5 228 675 240.5 691C241.5 684 256.5 675 266.499 689C269.499 683.167 284 677 297.499 693" stroke="white" stroke-width="1.4" stroke-linecap="round" stroke-linejoin="round"/>
<path d="M359 754.5C358.5 745 344.5 739.5 338.5 748.5C337 740 315 730.5 309.5 754.5" stroke="white" stroke-width="1.4" stroke-linecap="round" stroke-linejoin="round"/>
<path d="M92 729.5C94.6667 719.667 108 705.5 123 724.5C125.5 718.5 139.5 715.5 144 734" stroke="white" stroke-width="1.4" stroke-linecap="round" stroke-linejoin="round"/>
</svg>

<svg xmlns="http://www.w3.org/2000/svg" width="555" height="907" fill="none" viewBox="0 0 555 907">
    <rect width="213" height="833" fill="#F8CA06" rx="106.5" transform="matrix(1 0 0 -1 73 833)"/>
    <ellipse fill="#F8CA06" rx="119" ry="118.5" transform="matrix(1 0 0 -1 436 773.5)"/>
    <ellipse cx="38.5" cy="904" fill="#181C19" opacity=".1" rx="18.5" ry="2"/>
    <path fill="#F8CA06" d="M67.184 823.41c-17.83 5.069-27.977 22.395-30.873 30.582-.02.053-.028.106-.028.163v.741c0 .259.209.476.467.497 27.89 2.244 32.341-19.722 31.054-31.575-.032-.301-.329-.491-.62-.408zM36.604 862.105v-2.74c0-.104-.032-.205-.092-.289-3.555-4.998-8.001-11.132-15.957-14.314-7.588-3.036-14.889-6.071-19.731-9.92-.33-.263-.825-.042-.824.379.026 6.302 1.952 15.116 9.643 21.096 5.647 4.391 11.705 2.93 26.34 6.275.314.072.621-.164.621-.487zM40.042 811.974c18.801-1.851 21.465-22.346 20.401-33.185-.036-.368-.449-.556-.759-.355-8.54 5.522-12.864 8.963-15.054 12.405-3.529 5.545-2.892 9.927-5.118 18.23-.012.043-.018.087-.018.131v2.282c0 .292.258.521.548.492zM38.187 822.105c-17.21 3.217-23.883-12.033-25.226-20.855-.055-.363.296-.648.644-.529 4.18 1.423 5.305 2.063 10.162 3.277 5.135 1.284 8.253 4.815 9.95 7.704 1.615 2.751 2.773 5.793 4.82 9.68.156.296-.022.662-.35.723z"/>
    <path stroke="#181C19" stroke-linecap="round" stroke-linejoin="round" stroke-width="1.4" d="M38.53 799.826c.535 3.103 1.284 10.003 1.284 12.839 0 6.74-3.53 24.393-3.53 28.887 0 4.493-.056 20.221 1.283 30.492 1.34 10.271.321 23.645 0 31.776"/>
    <path fill="#181C19" d="M58.75 858.884l.7.015c.005-.242-.116-.47-.319-.602s-.46-.149-.68-.046l.299.633zm-11.555 5.17l.413.565-.413-.565zm10.855-5.185c-.1 4.711-4.205 15.594-20.343 19.881l.36 1.353c16.728-4.444 21.269-15.857 21.383-21.204l-1.4-.03zm-19.506 16.946c.973-2.66 3.854-7.392 9.064-11.196l-.826-1.13c-5.436 3.969-8.486 8.929-9.553 11.845l1.315.481zm9.064-11.196c1.446-1.056 2.898-1.68 4.71-2.368 1.81-.687 3.97-1.435 6.73-2.733l-.596-1.267c-2.697 1.269-4.788 1.992-6.63 2.691-1.838.698-3.436 1.375-5.04 2.547l.826 1.13z"/>
    <path stroke="#181C19" stroke-linecap="round" stroke-linejoin="round" stroke-width="1.4" d="M38.063 889.018c-1.926-6.206-9.931-20.12-27.135-26.282 1.605 4.493 1.137 8.016 3.21 12.518 1.837 3.993 4.281 7.674 8.665 10.791 3.88 2.758 7.235 2.406 15.26 5.616M36.283 839.626c-2.675-4.065-10.785-12.325-21.826-12.839 2.247 5.136 2.543 6.713 3.852 8.667 1.308 1.953 6.627 6.314 17.974 5.135M37.888 829.676c.642-4.814 4.879-15.214 16.69-18.295-1.07 6.954-6.034 21.184-17.332 22.468"/>
    <ellipse fill="#181C19" opacity=".1" rx="20.788" ry="2.247" transform="matrix(-1 0 0 1 361.234 903.757)"/>
    <path stroke="#181C19" stroke-linecap="round" stroke-linejoin="round" stroke-width="1.4" d="M357.59 902.633c-33.999-16.855-53.676-47.2-12.087-26.406 11.236 5.618-5.603-5.056-18.814-23.035s6.727-12.848 14.881-4.495c28.019 28.707 3.658 19.103-3.645-17.416-5.843-29.215 8.802-11.424 16.855 1.123 3.183 5.431 9.72 15.096 5.72 15.096-4 0-5.72-49.5 4.667-52.738 6.993-2.18 17.762 44.479 5.906 51.688-6.468 3.933 15.443-27.53 20.5-24.159 3.371 2.248 1.918 23.365-15.17 40.452-7.304 7.304 11.575-25.844 22.199-18.54 2.997 2.06 3.146 12.248-20.226 36.519 15.17-11.612 43.436-16.293-9.376 21.911"/>
    <ellipse cx="266.5" cy="903.349" fill="#181C19" opacity=".1" rx="25.5" ry="3"/>
    <ellipse cx="131.5" cy="903.349" fill="#181C19" opacity=".1" rx="25.5" ry="3"/>
    <path fill="#fff" stroke="#181C19" stroke-linecap="round" stroke-linejoin="round" stroke-miterlimit="10" stroke-width="1.4" d="M210.002 855.048c1.851-7.191 2.35-18.085-5.482-29.192 0 0 9.184-1.353 18.084-2.634 13.03 12.032-12.602 31.826-12.602 31.826z"/>
    <path stroke="#181C19" stroke-linecap="round" stroke-linejoin="round" stroke-miterlimit="10" stroke-width="5" d="M246.599 842.232h-83.66M249.091 847.857s-6.337-11.25-5.838-27.626M246.599 842.232l-50.552 41.438M162.939 842.232l-8.544 6.978M188.5 880.395l-31.328-46.778"/>
    <path fill="#fff" stroke="#181C19" stroke-linecap="round" stroke-linejoin="round" stroke-miterlimit="10" stroke-width="5" d="M133.961 900.972c16.515 0 29.904-13.388 29.904-29.904 0-16.515-13.389-29.904-29.904-29.904-16.516 0-29.904 13.389-29.904 29.904 0 16.516 13.388 29.904 29.904 29.904z"/>
    <rect width="4.945" height="19.469" x="129.611" y="880.629" fill="#181C19" rx="2.472" transform="rotate(-120 129.611 880.629)"/>
    <circle cx="127.076" cy="870.674" r="2.781" fill="#181C19" transform="rotate(-120 127.076 870.674)"/>
    <path fill="#fff" stroke="#181C19" stroke-linecap="round" stroke-linejoin="round" stroke-miterlimit="10" stroke-width="5" d="M267.888 900.972c16.516 0 29.904-13.388 29.904-29.904 0-16.515-13.388-29.904-29.904-29.904-16.515 0-29.904 13.389-29.904 29.904 0 16.516 13.389 29.904 29.904 29.904z"/>
    <rect width="4.892" height="19.263" x="268.261" y="860.8" fill="#181C19" rx="2.446" transform="rotate(30 268.261 860.8)"/>
    <circle cx="275.359" cy="868.076" r="2.752" fill="#181C19" transform="rotate(30 275.359 868.076)"/>
    <path fill="#fff" stroke="#181C19" stroke-linecap="round" stroke-linejoin="round" stroke-miterlimit="10" stroke-width="1.4" d="M210.002 855.048c-1.353 5.269-3.347 8.544-3.347 8.544s-5.696 10.68-9.256 16.376c-3.56 5.696-1.424 8.544-1.424 8.544s.712 1.424 3.56 4.984c1.78 2.207 1.068 3.062.285 3.346-.498.143-.997.214-1.424.072-1.78-.356-7.761-1.567-10.181-2.777-2.848-1.424-2.136-12.104-2.136-12.104V865.23c0-3.988-.641-7.904-2.065-11.606-4.059-10.466-11.25-13.101-13.599-14.311-5.696-2.848-19.936-2.848-27.056-8.544-7.12-5.696-12.816-13.528-12.104-32.04 6.55 3.916 20.292 15.664 42.008 4.272 0 0 6.408 22.784 31.328 22.784 7.76 11.178 7.262 22.072 5.411 29.263z"/>
    <path fill="#F8CA06" stroke="#181C19" stroke-linecap="round" stroke-linejoin="round" stroke-miterlimit="10" stroke-width="1.4" d="M256.78 818.167c-1.139.356-2.278.569-3.489.64-5.98.641-5.197.712-14.596 2.065-1.78.285-8.828 1.282-16.091 2.35-8.9 1.281-18.085 2.634-18.085 2.634-24.92 0-31.328-22.784-31.328-22.784 21.36-13.457 35.814-10.751 39.303-9.327 6.194 12.175 17.657 14.667 23.353 15.023 5.554.356 13.244.926 17.017 1.282 1.994.142 3.987.712 5.767 1.78 4.984 2.848 1.068 5.482-1.851 6.337z"/>
    <path fill="#181C19" stroke="#181C19" stroke-linecap="round" stroke-linejoin="round" stroke-miterlimit="10" stroke-width="1.4" d="M208.792 781c.64 5.126 1.993 9.327 3.702 12.745-3.489-1.424-17.942-4.059-39.302 9.327-21.716 11.392-35.458-.356-42.008-4.272.712-18.512 20.648-39.872 49.84-38.448 12.104.57 19.081.427 23.211 0 3.417 7.262 8.045 8.259 8.757 8.544-6.052 5.34-4.2 12.104-4.2 12.104z"/>
    <path stroke="#181C19" stroke-linecap="round" stroke-linejoin="round" stroke-miterlimit="10" stroke-width="1.4" d="M227.304 753.944c-.712 2.136-.712 4.984-.712 4.984-.712 4.984-5.696 5.696-5.696 5.696-3.56 1.139-6.052 2.634-7.903 4.272-.712-.356-5.34-1.353-8.758-8.544 5.768-.57 5.625-1.638 5.625-1.638-.783-.213-.997-.925.356-2.563.926-1.139 2.207-2.065 3.56-2.777 4.699-2.492 8.473-2.848 8.473-2.848 1.495 2.706 5.055 3.418 5.055 3.418zM209.788 758.643c1.21.356 3.987-.427 3.987-.427"/>
    <path fill="#fff" stroke="#181C19" stroke-linecap="round" stroke-linejoin="round" stroke-miterlimit="10" stroke-width="1.4" d="M213.776 753.303c-1.353.783-2.634 1.709-3.56 2.777-1.353 1.638-1.139 2.35-.356 2.563 0 0 .142 1.068-5.625 1.638-3.417-7.263-1.21-27.27 15.094-18.939-3.488 5.197-5.767 11.961-5.553 11.961z"/>
    <path fill="#181C19" stroke="#181C19" stroke-linecap="round" stroke-linejoin="round" stroke-miterlimit="10" stroke-width="1.4" d="M222.32 750.384s-3.845.427-8.473 2.848c-.285 0 1.994-6.764 5.554-11.89 2.278-3.418 5.126-6.124 8.045-5.839 5.554.641.356 11.463-5.126 14.881z"/>
    <path stroke="#fff" stroke-linecap="round" stroke-linejoin="round" stroke-width="1.4" d="M216 698c-1.001-11.5 12-23 24.5-7 1-7 16-16 25.999-2 3-5.833 17.501-12 31 4M359 754.5c-.5-9.5-14.5-15-20.5-6-1.5-8.5-23.5-18-29 6M92 729.5c2.667-9.833 16-24 31-5 2.5-6 16.5-9 21 9.5"/>
</svg>
